X:1
T:Where The Jack O'Lanterns Glow
T:Where The Jack O'Lanterns Glow
T:Music by NEUMAN FIER 
T:           Lyric by MITCHELL PARISH 
T:Copyright 1920 by Jack Mills Inc. 
T:Copyright 1920 by Jack Mills Inc. 
C:Music by
Z:Lyric by
Z:Copyright 1920 by Jack Mills Inc.
%%score 1 { ( 2 3 ) | ( 4 5 ) }
L:1/8
Q:1/4=160
M:4/4
K:C
V:1 treble nm="Voice"
V:2 treble nm="Piano"
V:3 treble 
V:4 bass 
V:5 bass 
V:1
"_Moderato" z8 | z8 | z8 | z4 || z4 |: z8 | z4 E G A c :| A4 A4- | A4 E G A e | B4 B4- | %10
w: ||||||Sen- ti- ment- al|pla- ces,|_ Or- i- en- tal|fa- ces,|
w: ||||||Lamps of night are|burn ing,|_ Mem- o- ries are|turn- ing,|
 B z z2 z4 | G6 ^G2 | A2 c A c2 A2 | F8- | F4 D F A c | A4 A4- | A4 D F A c | A4 A4- | A6 G2 | %19
w: _|Call to|me o'er the dis- tant|sea.|_ Sil- ver moon- light|fall- ing|_ East- ern voi- ces|call ing,|_ Re-|
w: _|O'er and|o'er to that dis- tant|shore.|_ All the while I'm|dream- ing|_ All the while I'm|schem- ing,|_ To|
 ^F4 E2 D E | ^F2 c2 B2 A2 | G8- | G2 z2 z4 |:[M:4/4]"^CHORUS" c2 A2"^Not too fast" c4- | %24
w: mind me of a|place I long to|be.|_|Let me go|
w: get back to the|one that I a-|dore.|_||
 c2 A B c2 A2 | B2 G2 B4- | B2 G A B2 G2 | A2 E2 A4- | A2 A B A2 E2 | G6 E2 | D4 G4 | c2 A2 c4- | %32
w: _ where the Jack O'|Lan- terns glow|_ Where the yel- low|moon hangs low,|_ Life is full of|gold- en|ho- urs|Let me go|
w: ||||||||
 c2 A B c2 A2 | B2 ^G2 B4- | B2 B ^c B2 ^G2 | B2 ^G2 ^F4- | F z ^F ^G B G F G | (E8 | =G) z z2 z4 | %39
w: _ where the scen- ted|breez- es blow|_ Some- one miss- es|me I know,|_ In the land of lo- tus|flow-|ers;|
w: |||||||
 A2 A2 A3 G | A B A G E4 | A2 A2 A3 G | A B A G E2 G2 | c2 A2 c4- | c z c A B c d B |1 c8- | %46
w: Jap- a- nee is|wait- ing there for me|Un- der- neath the|weep- ing wil- low tree, I|want to go|_ Where the Jack O' Lan- terns|glow.|
w: |||||||
 c2 z2 z4 :|2 c8- | c2 z2 z4 |] %49
w: _|glow.|_|
w: |||
V:2
!mf! .[cec'].[cec'].[cec'].[cec'] .[cea]2 .[cea]2 | .[Bdg].[Bdg].[Bdg].[Bdg] .[^Gde]2 .[Gde]2 | %2
 .[EAc].[EAc] .[EAc]2 [B,EG]2 [B,^DG]2 | !fermata![CEc]4 ||!p!"^Till ready" (E!<(!GAc!<)! |: %5
 A4) x2 E2 | G2- G z (EGAc) :| A4 A4- | A4 (EGAe | B4) B4- | B2 [B,^FB]2 [B,=FA]2 [B,F_A]2 | %11
 G6 ^G2 | A2 cA c2 A2 | [A,C=F]2 (e2 dcAF | D4) (DFAc | A4) A4- | A4 (DFAc | A4) A4- | %18
 A2 (B2 A2 G2) | ^F4 E2 DE | ([C^F]2 [EFc]2) ([DFB]2 [CFA]2) | [B,DG]2 (^FG AGFG | %22
 [^GB]) z .^D.E .=F.E.D.E |:[M:4/4]!p!!f! [CEc]2 [CEA]2 c4- | c2 [CEA]B [CEc]2 [CEA]2 | %25
 [B,GB]2 [B,EG]2 [B,B]4- | [B,B]2 [EG][^FA] [GB]2 [EG]2 | [CEA]2 [CE]2 [CA]4- | %28
 [CA]2 [C^FA][DFB] [CFA]2 [CE]2 | (G6 E2) | (D4 G4) | [=CEc]2 [CEA]2 c4- | %32
 c2 [CEA]B [CEc]2 [CEA]2 | [B,GB]2 [B,E^G]2 [B,B]4- | [B,B]2 [E^GB]^c [EGB]2 G2 | %35
 [^DB]2 [B,D^G]2 ^F4- | F2 .[A,^F].[B,^G] .[^CA].[B,G].[A,F].[B,G] | (E8 |!sfz! =G) z (DE F^FG^G) | %39
 [CEA]2 [CEA]2 [CEA]3 G | ([CA][EB][CA][EG] [CE]4) | [CEA]2 [CEA]2 [CEA]3 G | %42
 [CA][EB][CA][EG] [CE]2 [B,EG]2 | [C^Fc]2 [CFA]2 [Cc]4- | [Cc]2 cA BcdB |1 %45
 [CEc] z (^DE) !^!A z (^FG) | !>![EG=d]2 [EGc]2 (!>!BA^GE) :|2 [CEc]2 [cea][cea] [cfa]2 [Bdg]2 | %48
 [cgc']2 z2 !>![cegc']2 z2 |] %49
V:3
 (G4 ^F4 | =F4 E4) | x8 | x4 || x4 |: z2 [CE][CE] [A,E]2 ^A,2 | [B,F]2- [B,F] x5 :| %7
 z2 [CE][CE] z2 [CE][CE] | z2 [CE]2 x4 | z2 [B,EG][B,EG] z2 [B,EG][B,EG] | z2 x6 | %11
 z2 [CE][CE] [CE]2 [CE]2 | [C=G]4 [C^F]4 | x2 [FA]4 z2 | z2 [A,C]2 x4 | %15
 z2 [B,^C][B,C] [B,D]2 [B,E][B,E] | [B,F]2 [B,F]2 x4 | z2 [B,^C][B,C] [B,D]2 [B,E][B,E] | %18
 [B,F]2 [DF]4 [^CE]2 | z2 [=CD][CD] C2 C2 | x8 | x2 [B,D]2 [B,D]4 | [DE]2 x6 |: %23
[M:4/4] x4 [CE]2 [CE][CE] | [CE]2 x6 | x4 z2 [EG][EG] | [EG]2 x6 | x8 | x8 | %29
 z2 [B,=F][B,F] [_B,E]2 B,2 | z2 [A,C]2 z ^CD^D | x4 [CE]2 [CE][CE] | [CE]2 x6 | x4 z2 [E^G][EG] | %34
 x6 ^CD | x4 z2 [A,^D][A,D] | z2 x6 | z2 [^G,B,][G,B,] [G,B,]2 [G,B,]2 | [=B,DF] x7 | x8 | x8 | %41
 x8 | x8 | x4 z2 [^FA][FA] | [^FA]2 [CF]2 [D=F]2 [DF]2 |1 x8 | x4 D4 :|2 x8 | x8 |] %49
V:4
"^L.H." x8 | x8 | x4 G,2 =F,2 | !arpeggio!!fermata![C,,G,,E,]4 || z4 |: %5
 [C,,C,]4 [C,,C,]2 [^C,,^C,]2 | (([D,,D,]2 .G,,)) z z4 :| C,2 G,2 G,,2 G,2 | C,2 G,2 z4 | %9
 [E,,E,]2 z2 [B,,,B,,]2 z2 | [E,,E,]2 [_E,,_E,]2 [D,,D,]2 G,,2 | [C,,C,]2 z2 G,,2 C,2 | %12
 [E,,E,]4 [_E,,_E,]4 | [D,,D,]2 (E2 DCA,F, | D,4) z4 | [G,,F,]4 [G,,F,]4 | [D,,D,]4 z4 | %17
 [G,,F,]4 [G,,F,]4 | (([D,,D,]2 [G,,G,]2 [A,,A,]2 [_B,,_B,]2)) | [A,,A,]4 [G,,G,]2 ^F,E, | %20
 D,4 [D,,D,]4 | [G,,G,]4 [=F,,=F,]4 | [E,,E,] z .^D,.E, .F,.E,.D,.E, |: %23
[M:4/4]"^-" ([A,,A,]4 [E,,E,]4 | [C,,C,]4 [A,,,A,,]4) | [E,,E,]4 B,,4 | z2 [E,B,]2 z2 [E,B,]2 | %27
 [A,,E,]2 z2 E,2 F,2 | ^F,2 z2 D,,2 [D,F,]2 | [G,,D,]4 [^C,,^C,]2 [C,G,]2 | [D,F,]4 z2 [G,B,]2 | %31
 ([A,,A,]4 [E,,E,]4 | [C,,C,]4 [A,,,A,,]4) | [E,,E,]4 [^D,,^D,]4 | %34
 [^C,,^C,]2 [B,,,B,,]2 [E,,E,]2 [^E,,^E,]2 | [^F,,^F,]2 z2 [B,,,B,,]4 | [^D,,^D,]2 z2 [B,,,B,,]4 | %37
 (([E,,E,]8 | !>![D,,D,])) z z2 z4 |{/^D,} [A,,E,]2{/D,} [A,,E,]2{/D,} [A,,E,]2{/D,} [A,,E,]2 | %40
{/^D,} [A,,E,]2{/D,} [A,,E,]2{/D,} [A,,E,]2{/D,} [A,,E,]2 | %41
{/^D,} [A,,E,]2{/D,} [A,,E,]2{/D,} [A,,E,]2{/D,} [A,,E,]2 | %42
{/^D,} [A,,E,]2{/D,} [A,,E,]2{/D,} [A,,E,]2 [E,,E,]2 | [D,,D,]2 z2 [D,,D,]4 | %44
 [D,A,]4 G,,2 [G,B,]2 |1 [C,G,] z (^D,E,) A, z (^F,G,) | !^!=D2 C2 [E,B,]4 :|2 %47
 [C,G,]2 GG ^F2 [G,=F]2 | [CE]2 z2 !arpeggio![C,,G,,E,]2 z2 |] %49
V:5
 x8 | x8 | ^F,4 G,,4 | x4 || x4 |: x8 | x8 :| x8 | x8 | x8 | x8 | x8 | x8 | x8 | x8 | x8 | x8 | %17
 x8 | x8 | x8 | x8 | x8 | x8 |:[M:4/4] x8 | x8 | x8 | G,,4 E,,4 | x4 A,,4- | A,,2 x6 | x8 | %30
 x4 G,,4 | x8 | x8 | x8 | x8 | x8 | x8 | x8 | x8 | x8 | x8 | x8 | x8 | x8 | x8 |1 x8 | x8 :|2 x8 | %48
 x8 |] %49

